src/cmd/32/insertcellsright.svg

<?xml version="1.0" encoding="UTF-8" standalone="no"?>
<svg
   xmlns:dc="http://purl.org/dc/elements/1.1/"
   xmlns:cc="http://creativecommons.org/ns#"
   xmlns:rdf="http://www.w3.org/1999/02/22-rdf-syntax-ns#"
   xmlns:svg="http://www.w3.org/2000/svg"
   xmlns="http://www.w3.org/2000/svg"
   xmlns:sodipodi="http://sodipodi.sourceforge.net/DTD/sodipodi-0.dtd"
   xmlns:inkscape="http://www.inkscape.org/namespaces/inkscape"
   viewBox="0 0 32 32"
   version="1.1"
   id="svg6"
   sodipodi:docname="insertcellsright.svg"
   inkscape:version="1.0.1 (3bc2e813f5, 2020-09-07)"
   inkscape:export-filename="/home/jupiter007/Libreoffice yaru theme fullcolor/build/cmd/32/insertcellsright.png"
   inkscape:export-xdpi="96"
   inkscape:export-ydpi="96">
  <metadata
     id="metadata12">
    <rdf:RDF>
      <cc:Work
         rdf:about="">
        <dc:format>image/svg+xml</dc:format>
        <dc:type
           rdf:resource="http://purl.org/dc/dcmitype/StillImage" />
      </cc:Work>
    </rdf:RDF>
  </metadata>
  <defs
     id="defs10" />
  <sodipodi:namedview
     pagecolor="#ffffff"
     bordercolor="#666666"
     borderopacity="1"
     objecttolerance="10"
     gridtolerance="10"
     guidetolerance="10"
     inkscape:pageopacity="0"
     inkscape:pageshadow="2"
     inkscape:window-width="1920"
     inkscape:window-height="1011"
     id="namedview8"
     showgrid="true"
     inkscape:zoom="29.5"
     inkscape:cx="12.073011"
     inkscape:cy="15.1239"
     inkscape:window-x="0"
     inkscape:window-y="0"
     inkscape:window-maximized="1"
     inkscape:current-layer="svg6"
     inkscape:document-rotation="0">
    <inkscape:grid
       type="xygrid"
       id="grid822" />
  </sodipodi:namedview>
  <rect
     style="opacity:1;fill:#ffffff;fill-opacity:1;stroke:none;stroke-width:2;stroke-linecap:round;stroke-linejoin:round;stroke-miterlimit:4;stroke-dasharray:none;stroke-opacity:1"
     id="rect816"
     width="22"
     height="22"
     x="5"
     y="5" />
  <path
     d="m 4,6 v 11 9 c 0,2 1,2 3,2 h 6 6 6 c 2,0 3,0 3,-2 V 17 6 C 28,4 27,4 25,4 H 7 C 5,4 4,4 4,6 Z M 5,6 C 5,5 6,5 7,5 h 5 V 7 H 5 Z m 8,-1 h 6 v 2 h -6 z m 7,0 h 5 c 1,0 2,0 2,1 V 7 H 20 Z M 5,8 h 7 v 3 H 5 Z m 8,0 h 6 v 3 h -6 z m 7,0 h 7 v 3 H 20 Z M 5,12 h 7 v 3 H 5 Z m 8,0 h 6 v 3 h -6 z m 7,0 h 7 v 3 H 20 Z M 5,16 h 7 v 1 2 H 5 v -2 z m 8,0 h 6 v 1 2 h -6 v -2 z m 7,0 h 7 v 1 2 H 20 V 17 Z M 5,20 h 7 v 3 H 5 Z m 8,0 h 6 v 3 h -6 z m 7,0 h 7 v 3 H 20 Z M 5,24 h 7 v 3 H 7 C 6,27 5,27 5,26 Z m 8,0 h 6 v 3 h -6 z m 7,0 h 7 v 2 c 0,1 -1,1 -2,1 h -5 z"
     id="path2"
     inkscape:connector-curvature="0"
     style="fill:#6d6d6d;fill-opacity:1"
     sodipodi:nodetypes="ccccccccccccccccccccccccccccccccccccccccccccccccccccccccccccccccccccccccccccccccccccccccccccccccccccccccccccccccc" />
  <circle
     style="opacity:1;vector-effect:none;fill:#46a926;fill-opacity:1;stroke:none;stroke-width:4.49999952;stroke-linecap:butt;stroke-linejoin:round;stroke-miterlimit:4;stroke-dasharray:none;stroke-dashoffset:0;stroke-opacity:1"
     id="path2644"
     cy="26.5"
     cx="26.5"
     r="4.5" />
  <path
     inkscape:connector-curvature="0"
     id="path1063"
     overflow="visible"
     font-weight="400"
     style="color:#000000;font-weight:400;line-height:normal;font-family:sans-serif;text-indent:0;text-align:start;text-decoration:none;text-decoration-line:none;text-decoration-style:solid;text-decoration-color:#000000;text-transform:none;white-space:normal;overflow:visible;isolation:auto;mix-blend-mode:normal;fill:#ffffff;fill-opacity:1;marker:none"
     d="m 26,24 v 2 h -2.000001 v 1 H 26 v 2 h 1 v -2 h 2 v -1 h -2 v -2 z" />
  <path
     sodipodi:nodetypes="cccccccc"
     style="opacity:0.7;fill:#000000;fill-opacity:1;stroke:#000000;stroke-width:2;stroke-linecap:butt;stroke-linejoin:round;stroke-miterlimit:4;stroke-dasharray:none;stroke-opacity:1"
     d="M 29.999999,6 25,2 v 2.9999999 l -5.000001,5.61e-5 v 2 L 25,7 v 3 z"
     id="path836"
     inkscape:connector-curvature="0" />
  <path
     sodipodi:nodetypes="cccccccc"
     id="path838"
     d="M 29.999999,6 25,2 v 2.9999999 l -5.000001,5.61e-5 v 2 L 25,7 v 3 z"
     style="fill:#aee3f8;fill-opacity:1;stroke:none;stroke-width:1px;stroke-linecap:butt;stroke-linejoin:miter;stroke-opacity:1"
     inkscape:connector-curvature="0" />
  <rect
     style="fill:#46a926;fill-opacity:1;fill-rule:evenodd;stroke-width:2;stroke-linecap:round;stroke-linejoin:round"
     id="rect839"
     width="8"
     height="9"
     x="12"
     y="11" />
  <rect
     style="fill:#ddf6d5;fill-opacity:1;fill-rule:evenodd;stroke-width:2;stroke-linecap:round;stroke-linejoin:round"
     id="rect841"
     width="6"
     height="7"
     x="13"
     y="12" />
</svg>

<?xml version="1.0" encoding="UTF-8" standalone="no"?>
<svg
   xmlns:dc="http://purl.org/dc/elements/1.1/"
   xmlns:cc="http://creativecommons.org/ns#"
   xmlns:rdf="http://www.w3.org/1999/02/22-rdf-syntax-ns#"
   xmlns:svg="http://www.w3.org/2000/svg"
   xmlns="http://www.w3.org/2000/svg"
   xmlns:sodipodi="http://sodipodi.sourceforge.net/DTD/sodipodi-0.dtd"
   xmlns:inkscape="http://www.inkscape.org/namespaces/inkscape"
   viewBox="0 0 32 32"
   version="1.1"
   id="svg6"
   sodipodi:docname="insertcellsright.svg"
   inkscape:version="1.0.1 (3bc2e813f5, 2020-09-07)"
   inkscape:export-filename="/home/jupiter007/Libreoffice yaru theme fullcolor/build/cmd/32/insertcellsright.png"
   inkscape:export-xdpi="96"
   inkscape:export-ydpi="96">
  <metadata
     id="metadata12">
    <rdf:RDF>
      <cc:Work
         rdf:about="">
        <dc:format>image/svg+xml</dc:format>
        <dc:type
           rdf:resource="http://purl.org/dc/dcmitype/StillImage" />
      </cc:Work>
    </rdf:RDF>
  </metadata>
  <defs
     id="defs10" />
  <sodipodi:namedview
     pagecolor="#ffffff"
     bordercolor="#666666"
     borderopacity="1"
     objecttolerance="10"
     gridtolerance="10"
     guidetolerance="10"
     inkscape:pageopacity="0"
     inkscape:pageshadow="2"
     inkscape:window-width="1920"
     inkscape:window-height="1043"
     id="namedview8"
     showgrid="true"
     inkscape:zoom="29.5"
     inkscape:cx="18.685395"
     inkscape:cy="9.7995266"
     inkscape:window-x="1920"
     inkscape:window-y="0"
     inkscape:window-maximized="1"
     inkscape:current-layer="svg6"
     inkscape:document-rotation="0">
    <inkscape:grid
       type="xygrid"
       id="grid822" />
  </sodipodi:namedview>
  <path
     id="rect816"
     style="opacity:1;fill:#ffffff;fill-opacity:1;stroke:none;stroke-width:2;stroke-linecap:round;stroke-linejoin:round;stroke-miterlimit:4;stroke-dasharray:none;stroke-opacity:1"
     d="M 5 5 L 5 27 L 27 27 L 27 9.4804688 L 25 11.080078 L 25 7 L 18 7 L 18 5 L 5 5 z " />
  <path
     id="path2"
     style="fill:#6d6d6d;fill-opacity:1"
     d="M 7 4 C 5 4 4 4 4 6 L 4 17 L 4 26 C 4 28 5 28 7 28 L 13 28 L 19 28 L 25 28 C 27 28 28 28 28 26 L 28 17 L 28 8.6796875 L 27 9.4804688 L 27 11 L 25.099609 11 L 25 11.080078 L 25 11 L 20 11 L 20 8 L 25 8 L 25 7 L 20 7 L 19 7 L 18 7 L 13 7 L 13 5 L 18 5 L 18 4 L 7 4 z M 7 5 L 12 5 L 12 7 L 5 7 L 5 6 C 5 5 6 5 7 5 z M 5 8 L 12 8 L 12 11 L 5 11 L 5 8 z M 13 8 L 19 8 L 19 11 L 13 11 L 13 8 z M 5 12 L 12 12 L 12 15 L 5 15 L 5 12 z M 13 12 L 19 12 L 19 15 L 13 15 L 13 12 z M 20 12 L 27 12 L 27 15 L 20 15 L 20 12 z M 5 16 L 12 16 L 12 17 L 12 19 L 5 19 L 5 17 L 5 16 z M 13 16 L 19 16 L 19 17 L 19 19 L 13 19 L 13 17 L 13 16 z M 20 16 L 27 16 L 27 17 L 27 19 L 20 19 L 20 17 L 20 16 z M 5 20 L 12 20 L 12 23 L 5 23 L 5 20 z M 13 20 L 19 20 L 19 23 L 13 23 L 13 20 z M 20 20 L 27 20 L 27 23 L 20 23 L 20 20 z M 5 24 L 12 24 L 12 27 L 7 27 C 6 27 5 27 5 26 L 5 24 z M 13 24 L 19 24 L 19 27 L 13 27 L 13 24 z M 20 24 L 27 24 L 27 26 C 27 27 26 27 25 27 L 20 27 L 20 24 z " />
  <circle
     style="opacity:1;vector-effect:none;fill:#46a926;fill-opacity:1;stroke:none;stroke-width:4.49999952;stroke-linecap:butt;stroke-linejoin:round;stroke-miterlimit:4;stroke-dasharray:none;stroke-dashoffset:0;stroke-opacity:1"
     id="path2644"
     cy="26.5"
     cx="26.5"
     r="4.5" />
  <path
     inkscape:connector-curvature="0"
     id="path1063"
     overflow="visible"
     font-weight="400"
     style="color:#000000;font-weight:400;line-height:normal;font-family:sans-serif;text-indent:0;text-align:start;text-decoration:none;text-decoration-line:none;text-decoration-style:solid;text-decoration-color:#000000;text-transform:none;white-space:normal;overflow:visible;isolation:auto;mix-blend-mode:normal;fill:#ffffff;fill-opacity:1;marker:none"
     d="m 26,24 v 2 h -2.000001 v 1 H 26 v 2 h 1 v -2 h 2 v -1 h -2 v -2 z" />
  <rect
     style="fill:#46a926;fill-opacity:1;fill-rule:evenodd;stroke-width:2;stroke-linecap:round;stroke-linejoin:round"
     id="rect839"
     width="8"
     height="9"
     x="12"
     y="11" />
  <rect
     style="fill:#ddf6d5;fill-opacity:1;fill-rule:evenodd;stroke-width:2;stroke-linecap:round;stroke-linejoin:round"
     id="rect841"
     width="6"
     height="7"
     x="13"
     y="12" />
  <path
     inkscape:connector-curvature="0"
     style="fill:#e95420;fill-opacity:1;stroke:none;stroke-width:1px;stroke-linecap:butt;stroke-linejoin:miter;stroke-opacity:1"
     d="M 30.999999,5 26,9 V 6 H 18.999999 V 4 H 26 V 1 Z"
     id="path834"
     sodipodi:nodetypes="cccccccc"
     inkscape:transform-center-x="-6.0821824" />
</svg>
